X:1
T:Johnny Randolph
M:3/4
L:1/4
K:G
 D| G G G| G2 G| G F G/2G/2| A A F| G2 D| G G G| G2 G| G F G| B2 A/2G/2|\
 A2 d| e c e| d B B/2d/2| c A c| B2 d| e c e| d B B/2d/2| c A c| B2 d/2d/2|\
 D3/2 D/2 D| D2 E/2F/2| G G F| G2||
